svgs/sharp-regular/puzzle-piece-simple.svg

<svg xmlns="http://www.w3.org/2000/svg" viewBox="0 0 640 512"><!--! Font Awesome Pro 6.6.0 by @fontawesome - https://fontawesome.com License - https://fontawesome.com/license (Commercial License) Copyright 2024 Fonticons, Inc. --><path d="M112 64l24 0 144 0 24 0 0 24 0 14.4 0 10.9-8.2 7.2c-5.4 4.7-7.8 10.3-7.8 15.5c0 9.9 10.7 24 32 24s32-14.1 32-24c0-5.3-2.4-10.8-7.8-15.5l-8.2-7.2 0-10.9L336 88l0-24 24 0 144 0 24 0 0 24 0 94.6c10.9-8.9 24.5-14.6 40-14.6c22.5 0 41 12.2 53.1 28.3S640 233.6 640 256s-6.8 43.5-18.9 59.7S590.5 344 568 344c-15.5 0-29.1-5.8-40-14.6l0 94.6 0 24-24 0-144 0-24 0 0-24 0-14.4 0-10.9 8.2-7.2c5.4-4.7 7.8-10.3 7.8-15.5c0-9.9-10.7-24-32-24s-32 14.1-32 24c0 5.3 2.4 10.8 7.8 15.5l8.2 7.2 0 10.9 0 14.4 0 24-24 0-144 0-24 0 0-24 0-94.6C101.1 338.2 87.5 344 72 344c-22.5 0-41-12.2-53.1-28.3S0 278.4 0 256s6.8-43.5 18.9-59.7S49.5 168 72 168c15.5 0 29.1 5.8 40 14.6L112 88l0-24zm48 48l0 104 0 24-24 0-26.5 0-13.6 0-7-11.6C83.2 218.8 76.5 216 72 216c-4 0-9.5 2.1-14.7 9.1S48 243 48 256s4 23.8 9.3 30.9s10.7 9.1 14.7 9.1c4.5 0 11.2-2.8 16.9-12.4l7-11.6 13.6 0 26.5 0 24 0 0 24 0 104 84.5 0c-2.9-7.4-4.5-15.5-4.5-24c0-43.1 39.4-72 80-72s80 28.9 80 72c0 8.5-1.6 16.6-4.5 24l84.5 0 0-104 0-24 24 0 26.5 0 13.6 0 7 11.6c5.8 9.6 12.4 12.4 16.9 12.4c4 0 9.5-2.1 14.7-9.1s9.3-17.9 9.3-30.9s-4-23.8-9.3-30.9s-10.7-9.1-14.7-9.1c-4.5 0-11.2 2.8-16.9 12.4l-7 11.6-13.6 0L504 240l-24 0 0-24 0-104-84.5 0c2.9 7.4 4.5 15.5 4.5 24c0 43.1-39.4 72-80 72s-80-28.9-80-72c0-8.5 1.6-16.6 4.5-24L160 112z"/></svg>

<svg xmlns="http://www.w3.org/2000/svg" viewBox="0 0 640 512"><!--! Font Awesome Pro 6.4.2 by @fontawesome - https://fontawesome.com License - https://fontawesome.com/license (Commercial License) Copyright 2023 Fonticons, Inc. --><path d="M112 64h24H280h24V88v14.4 10.9l-8.2 7.2c-5.4 4.7-7.8 10.3-7.8 15.5c0 9.9 10.7 24 32 24s32-14.1 32-24c0-5.3-2.4-10.8-7.8-15.5l-8.2-7.2V102.4 88 64h24H504h24V88v94.6c10.9-8.9 24.5-14.6 40-14.6c22.5 0 41 12.2 53.1 28.3S640 233.6 640 256s-6.8 43.5-18.9 59.7S590.5 344 568 344c-15.5 0-29.1-5.8-40-14.6V424v24H504 360 336V424 409.6 398.7l8.2-7.2c5.4-4.7 7.8-10.3 7.8-15.5c0-9.9-10.7-24-32-24s-32 14.1-32 24c0 5.3 2.4 10.8 7.8 15.5l8.2 7.2v10.9V424v24H280 136 112V424 329.4C101.1 338.2 87.5 344 72 344c-22.5 0-41-12.2-53.1-28.3S0 278.4 0 256s6.8-43.5 18.9-59.7S49.5 168 72 168c15.5 0 29.1 5.8 40 14.6V88 64zm48 48V216v24H136 109.5 95.9l-7-11.6C83.2 218.8 76.5 216 72 216c-4 0-9.5 2.1-14.7 9.1S48 243 48 256s4 23.8 9.3 30.9s10.7 9.1 14.7 9.1c4.5 0 11.2-2.8 16.9-12.4l7-11.6h13.6H136h24v24V400h84.5c-2.9-7.4-4.5-15.5-4.5-24c0-43.1 39.4-72 80-72s80 28.9 80 72c0 8.5-1.6 16.6-4.5 24H480V296 272h24 26.5 13.6l7 11.6c5.8 9.6 12.4 12.4 16.9 12.4c4 0 9.5-2.1 14.7-9.1s9.3-17.9 9.3-30.9s-4-23.8-9.3-30.9s-10.7-9.1-14.7-9.1c-4.5 0-11.2 2.8-16.9 12.4l-7 11.6H530.5 504 480V216 112H395.5c2.9 7.4 4.5 15.5 4.5 24c0 43.1-39.4 72-80 72s-80-28.9-80-72c0-8.5 1.6-16.6 4.5-24H160z"/></svg>
